icons/delete-back-line.svg

<svg viewBox="0 0 24 24" fill="currentColor" xmlns="http://www.w3.org/2000/svg">
    <path d="M6.53451 3H20.9993C21.5516 3 21.9993 3.44772 21.9993 4V20C21.9993 20.5523 21.5516 21 20.9993 21H6.53451C6.20015 21 5.88792 20.8329 5.70246 20.5547L0.369122 12.5547C0.145189 12.2188 0.145189 11.7812 0.369122 11.4453L5.70246 3.4453C5.88792 3.1671 6.20015 3 6.53451 3ZM7.06969 5L2.40302 12L7.06969 19H19.9993V5H7.06969ZM15.9993 11V13H8.99932V11H15.9993Z"/>
</svg>

<svg xmlns="http://www.w3.org/2000/svg" viewBox="0 0 24 24">
    <g>
        <path fill="none" d="M0 0h24v24H0z"/>
        <path d="M6.535 3H21a1 1 0 0 1 1 1v16a1 1 0 0 1-1 1H6.535a1 1 0 0 1-.832-.445l-5.333-8a1 1 0 0 1 0-1.11l5.333-8A1 1 0 0 1 6.535 3zm.535 2l-4.666 7 4.666 7H20V5H7.07zM16 11v2H9v-2h7z"/>
    </g>
</svg>
